X:1
T:I Will Set My Ship in Order
M:3/4
L:1/8
K:F
 BA| B2 Bc fd| c2 FF BA| B2 c2 fd| c4 c2| BG F2 CC| FFF-G AB| ce c2 AA|\
 BG F2||
